web/packages/design/src/ResourceIcon/assets/slab.svg

<svg width="72" height="72" viewBox="0 0 72 72" fill="none" xmlns="http://www.w3.org/2000/svg">
<g clip-path="url(#clip0_8803_4396)">
<path fill-rule="evenodd" clip-rule="evenodd" d="M63.8594 32.4143C57.9268 32.1893 56.0237 37.9738 56.0237 37.9738C55.9116 35.5586 56.0801 33.986 56.0801 33.986C56.4156 33.7618 61.4523 31.7958 61.7321 25.0008C61.8442 21.2944 58.7662 19.1598 55.1842 20.3396C53.8416 26.5168 52.5538 34.9417 53.673 43.7584C53.4497 44.4326 51.4353 49.3744 49.2524 49.3744C46.2857 49.3744 45.7825 43.2528 45.8946 39.2658C46.5655 37.8053 47.9646 34.3239 46.7897 32.9191C46.23 32.1893 45.1108 32.0764 43.4319 32.4143C43.4319 32.807 43.3198 35.4465 43.3198 35.4465C43.3198 35.4465 41.865 32.6949 38.283 32.6949C33.135 32.6949 29.7772 37.6932 29.7772 42.9165C29.7772 43.7592 29.8329 44.4882 29.8885 45.2188L29.9449 45.2745L29.8885 45.3309C28.4894 47.9147 27.2024 49.2058 25.5235 49.2058C21.8859 49.2058 21.4383 43.5898 21.4383 43.5898C24.8518 39.5464 26.6992 33.8739 26.6992 27.6967C26.6992 22.5855 24.4607 18.8227 19.8715 20.3396C18.8079 25.7314 17.4644 37.8053 18.4724 43.4213C16.4572 46.1172 14.0509 47.7462 14.0509 47.7462C14.0509 47.7462 14.4429 47.1285 14.4429 45.7237C14.4429 39.5464 3.75413 41.2875 3.75413 37.6932C3.75413 36.7384 4.53713 35.1094 7.67076 35.1094C10.5254 35.1094 12.0358 36.6263 12.7639 36.6263C14.4985 36.6263 14.2743 34.4917 14.2743 34.4917C13.4357 33.8739 10.6367 32.3014 7.61513 32.3578C2.80258 32.3578 0.731765 35.2788 0.731765 37.8617C0.731765 44.6011 11.7003 42.2423 11.7003 46.2858C11.7003 48.3639 10.4698 49.5429 7.4474 49.5429C4.81695 49.5429 2.91467 47.4091 1.7954 47.4091C-0.164144 47.4091 0.00358348 49.43 0.00358348 49.43C0.507583 49.8236 3.64204 52.4074 7.78286 52.3509C11.2528 52.2388 15.3936 50.8348 19.032 46.4543V46.3422C19.7594 48.9817 21.3819 52.3509 25.188 52.3509C28.7692 52.3509 30.84 48.3075 30.84 48.3075C30.84 48.3075 32.6319 52.3509 36.7162 52.3509C39.57 52.3509 41.8094 50.9469 43.7117 47.5777C44.6076 50.7784 46.3978 52.3509 49.1403 52.3509C52.4981 52.3509 54.4012 48.3075 54.7367 47.5212C55.3528 48.7567 57.5349 52.1824 62.0119 52.3509C69.567 52.6316 71.637 45.8366 71.7499 42.2979C71.8612 38.8722 69.9033 32.6385 63.8594 32.4143ZM57.3099 23.2597C57.3099 23.2597 59.1009 22.8669 59.0444 24.9451C58.8767 29.774 56.1349 30.9538 56.1349 30.9538C56.3578 28.3662 56.7503 25.7959 57.3099 23.2597ZM20.8787 40.1085C20.6553 31.1224 22.11 23.4282 22.11 23.4282C22.11 23.4282 23.9002 23.4847 23.9002 28.2023C23.9002 35.165 20.8787 40.1085 20.8787 40.1085ZM43.152 39.4899C43.152 45.2745 41.0248 49.2058 37.1081 49.2058C33.0229 49.2058 32.5189 44.3197 32.5189 42.8036C32.5189 40.8383 33.414 35.5029 38.2274 35.5029C41.5852 35.5029 43.1529 39.4899 43.1529 39.4343L43.152 39.4899ZM68.6711 42.5229C68.5599 45.1068 67.1051 49.5429 62.5716 49.3744C57.8703 49.1502 56.6954 44.6011 56.8075 42.635C57.0309 39.0408 59.438 35.165 63.5788 35.3344C67.6083 35.5029 68.7268 39.9399 68.6711 42.5229Z" fill="#FF4143"/>
</g>
<defs>
<clipPath id="clip0_8803_4396">
<rect width="72" height="72" fill="white"/>
</clipPath>
</defs>
</svg>

<svg xmlns="http://www.w3.org/2000/svg" width="72" height="72" fill="none" viewBox="0 0 72 72"><g clip-path="url(#clip0_8803_4396)"><path fill="#ff4143" fill-rule="evenodd" d="M63.86 32.414c-5.933-.225-7.836 5.56-7.836 5.56-.112-2.415.056-3.988.056-3.988.336-.224 5.372-2.19 5.652-8.985.112-3.707-2.966-5.841-6.548-4.661-1.342 6.177-2.63 14.602-1.511 23.418-.223.675-2.238 5.616-4.42 5.616-2.967 0-3.47-6.121-3.358-10.108.67-1.46 2.07-4.942.895-6.347-.56-.73-1.68-.843-3.358-.505 0 .393-.112 3.032-.112 3.032s-1.455-2.751-5.037-2.751c-5.148 0-8.506 4.998-8.506 10.221 0 .843.056 1.572.111 2.303l.057.056-.056.056c-1.4 2.584-2.687 3.875-4.366 3.875-3.637 0-4.085-5.616-4.085-5.616 3.414-4.044 5.261-9.716 5.261-15.893 0-5.111-2.238-8.874-6.828-7.357-1.063 5.391-2.407 17.465-1.399 23.081-2.015 2.696-4.421 4.325-4.421 4.325s.392-.617.392-2.022c0-6.178-10.689-4.436-10.689-8.03 0-.956.783-2.585 3.917-2.585 2.854 0 4.365 1.517 5.093 1.517 1.735 0 1.51-2.134 1.51-2.134-.838-.618-3.637-2.19-6.659-2.134-4.812 0-6.883 2.92-6.883 5.504 0 6.74 10.968 4.38 10.968 8.424 0 2.078-1.23 3.257-4.253 3.257-2.63 0-4.532-2.134-5.652-2.134-1.96 0-1.791 2.021-1.791 2.021.504.394 3.638 2.977 7.779 2.92 3.47-.111 7.61-1.515 11.249-5.896v-.112c.727 2.64 2.35 6.009 6.156 6.009 3.581 0 5.652-4.044 5.652-4.044s1.792 4.044 5.876 4.044c2.854 0 5.093-1.404 6.996-4.773.896 3.2 2.686 4.773 5.428 4.773 3.358 0 5.261-4.044 5.597-4.83.616 1.236 2.798 4.661 7.275 4.83 7.555.28 9.625-6.514 9.738-10.053.111-3.426-1.847-9.66-7.89-9.884m-6.55-9.154s1.79-.393 1.734 1.685c-.167 4.829-2.91 6.009-2.91 6.009a59 59 0 0 1 1.176-7.694M20.879 40.108c-.224-8.986 1.231-16.68 1.231-16.68s1.79.057 1.79 4.774c0 6.963-3.021 11.906-3.021 11.906m22.273-.618c0 5.785-2.127 9.716-6.044 9.716-4.085 0-4.59-4.886-4.59-6.402 0-1.966.896-7.301 5.71-7.301 3.357 0 4.925 3.987 4.925 3.931zm25.52 3.033c-.112 2.584-1.567 7.02-6.1 6.851-4.702-.224-5.877-4.773-5.765-6.739.224-3.594 2.631-7.47 6.772-7.3 4.03.168 5.148 4.605 5.092 7.188" clip-rule="evenodd"/></g><defs><clipPath id="clip0_8803_4396"><path fill="#fff" d="M0 0h72v72H0z"/></clipPath></defs></svg>
